src/assets/icons/dynamic.svg

<?xml version="1.0" standalone="no"?><!DOCTYPE svg PUBLIC "-//W3C//DTD SVG 1.1//EN" "http://www.w3.org/Graphics/SVG/1.1/DTD/svg11.dtd"><svg t="1537496598177" class="icon" style="" viewBox="0 0 1024 1024" version="1.1" xmlns="http://www.w3.org/2000/svg" p-id="2053" xmlns:xlink="http://www.w3.org/1999/xlink" width="128" height="128"><defs><style type="text/css"></style></defs><path d="M184.32 839.97127111V184.32l655.36-0.32768 0.29127111 655.72408889L184.32 839.93486222zM839.97127111 111.50222222H184.02872889A72.59932445 72.59932445 0 0 0 111.50222222 183.99232v655.97895111C111.50222222 879.94823111 144.05176889 912.49777778 184.02872889 912.49777778h655.94254222A72.63573333 72.63573333 0 0 0 912.49777778 839.97127111V183.99232a72.59932445 72.59932445 0 0 0-72.52650667-72.45368889z" p-id="2054"></path><path d="M746.91015111 433.28398222l-132.89244444 132.85603556-116.25358222-116.28999111a36.40888889 36.40888889 0 0 0-51.37294223-0.14563556l-178.43996444 176.58311111a36.44529778 36.44529778 0 0 0 51.22730667 51.80984889l152.69888-151.13329778 116.43562666 116.43562667a37.50115555 37.50115555 0 0 0 51.48216889 0l158.59712-158.63352889a36.37248 36.37248 0 1 0-51.48216889-51.48216889" p-id="2055"></path></svg>

<svg class="icon" viewBox="0 0 1024 1024" xmlns="http://www.w3.org/2000/svg" width="128" height="128"><defs><style/></defs><path d="M184.32 839.971V184.32l655.36-.328.291 655.724-655.651.219zm655.651-728.469H184.03a72.6 72.6 0 0 0-72.527 72.49v655.98c0 39.976 32.55 72.526 72.527 72.526h655.94a72.636 72.636 0 0 0 72.527-72.527V183.992a72.6 72.6 0 0 0-72.527-72.453z"/><path d="M746.91 433.284L614.018 566.14 497.764 449.85a36.409 36.409 0 0 0-51.373-.146l-178.44 176.584a36.445 36.445 0 0 0 51.228 51.81l152.698-151.134L588.313 643.4a37.501 37.501 0 0 0 51.482 0l158.597-158.634a36.372 36.372 0 1 0-51.482-51.482"/></svg>
